X:1
T:Love Divine, All Loves Excelling
T:Text: Charles Wesley (1707-1788) Tune: John Zundel (1815-1882)
T:87 87D BEECHER www.hymnary.org/text/love_divine_all_love_excelling_joy_of_he
T:Love Divine, All Loves Excelling
T:This hymn is in the public domain.  You may freely use this score for personal and congregational worship.  If you reproduce the score, please credit Hymnary.org as the source. 
T:This hymn is in the public domain.  You may freely use this score for personal and congregational worship.  If you reproduce the score, please credit Hymnary.org as the source. 
Z:This hymn is in the public domain.  You may freely use this score for personal and congregational worship.  If you reproduce the score, please credit Hymnary.org as the source.
%%score ( 1 2 ) ( 3 4 )
L:1/8
M:4/4
K:Bb
V:1 treble nm="Piano" snm="Pno."
V:2 treble 
V:3 bass nm="Piano" snm="Pno."
V:4 bass 
V:1
 [DF]2 [DF]2 [EG]2 [DF]2 | [Fd]2 [Ec][Fd] [Ec]2 [DB]2 | [FA]2 [EG]2 [GB]2 [EG]2 | [DF]2 EF [B,D]4 | %4
w: 3~Come, al- migh- ty|to de- * li- ver,|let us all thy|life re- * ceive;|
w: 1~Love di- vine, all|loves ex- * cel- ling,|Joy of heaven to|earth come _ down,|
w: 2~Breathe, O breathe thy|lo- ving _ Spi- rit|in- to e- very|trou- bled _ breast;|
 [DF]2 [DF]2 [EG]2 [DF]2 | [Fd]2 [Ec][Fd] [Ec]2 [DB]2 | [EG]2 [Ge]2 [Fd]2 [FB]2 | [EA]2 GA [DB]4 | %8
w: sud- den- ly re-|turn, and _ ne- ver,|ne- ver- more thy|tem- ples _ leave.|
w: fix in us thy|hum- ble _ dwel- ling,|all thy faith- ful|mer- cies _ crown.|
w: let us all in|thee in- * he- rit,|let us find the|pro- mised _ rest.|
 [DB]2 [GB]2 [GB]2 [^FA]2 | G2 AG [D^F]2 D2 | [Dd]2 [Fd]2 [Ge]2 [Fd]2 | [Fc]2 cd c4 | %12
w: Thee we would be|al- ways _ bles- sing,|serve thee as thy|hosts a- * bove,|
w: Je- sus, thou art|all com- * pas- sion,|pure, un- boun- ded|love thou _ art;|
w: Take a- way the|love of _ sin- ning,|Al- pha and O-|me- ga _ be;|
 [DF]2 [DF]2 [EG]2 [DF]2 | [Fd]2 [Ec][Fd] [Ec]2 [DB]2 | [EG]2 [Ge]2 [Fd]2 [FB]2 | [EA]2 GA [DB]4 |] %16
w: pray and praise thee|with- out _ ceas- ing,|glo- ry in thy|per- fect _ love.|
w: vi- sit us with|thy sal- * va- tion,|en- ter e- very|trem- bling _ heart.|
w: end of faith, as|its be- * gin- ning,|set our hearts at|li- ber- * ty.|
V:2
 x8 | x8 | x8 | x2 C2 x4 | x8 | x8 | x8 | x2 E2 x4 | x8 | G2 D2 x2 D2 | x8 | x2 =E2 (F2 _E2) | x8 | %13
 x8 | x8 | x2 E2 x4 |] %16
V:3
 [B,,F,]2 [B,,F,]2 [B,,G,]2 [B,,F,]2 | [B,,B,]2 [F,A,]2 [F,A,]2 [B,,B,]2 | %2
 [E,B,]2 [E,B,]2 [E,B,]2 [E,B,]2 | [F,B,]2 [F,A,]2 [B,,F,]4 | [B,,B,]2 [B,,B,]2 [E,B,]2 [B,,B,]2 | %5
 [B,,B,]2 [F,A,]2 [^F,A,]2 [G,B,]2 | [E,B,]2 [E,B,]2 [F,B,]2 [F,D]2 | [F,C]2 F,2 [B,,F,]4 | %8
 [G,,G,]2 [B,,D]2 [D,D]2 [D,C]2 | [D,B,]2 CB, [D,A,]2 [D,^F,]2 | %10
 [B,,=F,]2 [B,,B,]2 [B,,B,]2 [B,,B,]2 | [C,A,]2 [C,B,]2 [F,A,]4 | %12
 [B,,B,]2 [B,,B,]2 [E,B,]2 [B,,B,]2 | [B,,B,]2 [F,A,]2 [^F,A,]2 [G,B,]2 | %14
 [E,B,]2 [E,B,]2 [F,B,]2 [F,D]2 | [F,C]2 F,2 [B,,F,]4 |] %16
V:4
 x8 | x8 | x8 | x8 | x8 | x8 | x8 | x2 F,2 x4 | x8 | x2 D,2 x4 | x8 | x8 | x8 | x8 | x8 | %15
 x2 F,2 x4 |] %16

